!!!COM: Bach, Johann Sebastian
!!!OTL: 183. Nun freut euch, lieben Christen, g'mein
!!!ONM: No. 183
!!!OCL: Erk
!!!SCA: BWV 388
!!!YOE: Riemenschneider, Albert
!!!OPR: 371 Harmonized Chorales and 69 Chorale Melodies with Figured Bass
!!!OPT: Bach Chorale Harmonizations
**harm	**root	**kern	**kern	**kern	**kern
!	!	!bass	!tenor	!alto	!sprno
*Iorgan	*Iorgan	*Iorgan	*Iorgan	*Iorgan	*Iorgan
*>[A,A,B]	*>[A,A,B]	*>[A,A,B]	*>[A,A,B]	*>[A,A,B]	*>[A,A,B]
*>norep[A,B]	*>norep[A,B]	*>norep[A,B]	*>norep[A,B]	*>norep[A,B]	*>norep[A,B]
*>A	*>A	*>A	*>A	*>A	*>A
*k[f#c#g#d#a#]	*k[f#c#g#d#a#]	*k[f#c#g#d#a#]	*k[f#c#g#d#a#]	*k[f#c#g#d#a#]	*k[f#c#g#d#a#]
*B:	*B:	*B:	*B:	*B:	*B:
*met(c)	*met(c)	*met(c)	*met(c)	*met(c)	*met(c)
*M4/4	*M4/4	*M4/4	*M4/4	*M4/4	*M4/4
*MM60	*MM60	*MM60	*MM60	*MM60	*MM60
I	4GG	8BB	8d#	4f#	4b
.	.	8C#	8c#	.	.
=1	=1	=1	=1	=1	=1
Ib	4GG	8D#	4B	4f#	4b
.	.	8E	.	.	.
V	4DD	8F#	4A#	4c#	4f#
.	.	8E	.	.	.
Ib	4GG	4D#	[4B	4f#	4b
viib	4FF#	4C#	8B]	4cc#	4ee
.	.	.	8A#	.	.
=2	=2	=2	=2	=2	=2
I	4GG	8BB	4.B	4f#	4dd#
.	.	8D#	.	.	.
V	4DD	4F#	.	8.f#	4cc#
.	.	.	8A#	.	.
.	.	.	.	16e	.
I;	4GG;	4BB;	4F#;	4d#;	4b;
vi	4EE	4G#	4B	8d#	4b
.	.	.	.	8e#	.
=3	=3	=3	=3	=3	=3
V	8DD	4F#	8A#	8f#	8cc#
viioD7c/ii	8GG#	.	8B#	8a	8dd#
ii	4AA	4C#	4c#	8g#	4ee
.	.	.	.	8a#	.
Ib	4GG	8D#	8F#	4b	4dd#
.	.	8E	8G#	.	.
V	4DD	4F#	4A#	8f#	4cc#
.	.	.	.	16c#	.
.	.	.	.	16d#	.
=4	=4	=4	=4	=4	=4
IV	4CC	8E	4B	2e	4g#
.	.	8D#	.	.	.
viib	4FF#	4C#	4c#	.	4a#
I;	4GG;	4BB;	4F#;	4d#;	4b;
=:|!	=:|!	=:|!	=:|!	=:|!	=:|!
*>B	*>B	*>B	*>B	*>B	*>B
!! Continuing.
I	4GG	8B	4d#	4f#	4b
.	.	8A#	.	.	.
=5	=5	=5	=5	=5	=5
IVb	8CC	8G#	8g#	8b	4ee
V7b	8DD	8A#	8f#	[8cc#	.
I	4GG	[4B	4f#	8cc#]	4dd#
.	.	.	.	16b	.
.	.	.	.	16a#	.
V7d/V	4AA	8B]	4e#	4g#	4cc#
.	.	16c#	.	.	.
.	.	16B	.	.	.
Vb	8DD	8A#	4f#	8cc#	4ff#
iii	8BB	8d#	.	8a#	.
=6	=6	=6	=6	=6	=6
!!linebreak: 2
vi7b	4EE	4B	8d#	8g#	4ff#
.	.	.	8G#	[8b	.
V7/V	4AA	8c#	4c#	8b]	4ee#
.	.	8C#	.	16a#	.
.	.	.	.	16g#	.
V;	4DD;	4F#;	4c#;	4a#;	4ff#;
Ib	4GG	4D#	[4f#	4b	4ff#
=7	=7	=7	=7	=7	=7
IV	4CC	8E	8f#]	4b	4gg#
.	.	8F#	16e	.	.
.	.	.	16d#	.	.
IVb	4CC	4G#	8e	4b	4ee
.	.	.	8g#	.	.
Vb	8DD	8A#	8f#	8cc#	4.ff#
V7	8DD	8F#	8e	8a#	.
vi7	8EE	8G#	8d#	8b	.
vii	8FF#	8A#	8c#	[8cc#	8ee
=8	=8	=8	=8	=8	=8
I	4GG	4B	16d#	8cc#]	4dd#
.	.	.	16e	.	.
.	.	.	4f#	4b	.
V	4DD	4F#	.	.	4cc#
.	.	.	8e	8a#	.
vi;	4EE;	4G#;	4d#;	4g#;	4b;
vi	4EE	4G#	4B	[4g#	4dd#
=9	=9	=9	=9	=9	=9
Vb	4DD	4A#	4c#	8g#]	4cc#
.	.	.	.	16f#	.
.	.	.	.	16e	.
I	4GG	8B	8B	4d#	4f#
.	.	8A#	8c#	.	.
vi	4EE	4G#	4d#	8g#	4b
.	.	.	.	8f#	.
ii	4AA	4C#	4c#	8g#	4ee
.	.	.	.	8a#	.
=10	=10	=10	=10	=10	=10
Ib	4GG	8D#	[4f#	4.b	4dd#
.	.	8E	.	.	.
V	4DD	4F#	8.f#]	.	4cc#
.	.	.	.	8a#	.
.	.	.	16e	.	.
I;	4GG;	4BB;	4d#;	4f#;	4b;
==	==	==	==	==	==
*-	*-	*-	*-	*-	*-
!!!CDT: 1685/3//-1750/7/28
!!!OCY: Deutschland
!!!AGN: chorale
!!!AST: Baroque
!!!AIN: vox
!!!YOY: 1941
!!!PPP: New York; London
!!!PPR: G. Schirmer
!!!ENC: David Huron
!!!EED: David Huron
!!!YEN: United States of America
!!!YER: 1992
!!!YEC: Copyright 1992 David Huron
!!!YEM: Rights to all derivative electronic formats reserved.
!!!YER: March 20, 1996
!!!AMT: simple quadruple
!!!EEV: 1.1
!!chor2scor: -l 2 -s 0.6 -o %b.pmx
